src/assets/navbar_heart.svg

<svg width="23" height="20" viewBox="0 0 23 20" fill="none" xmlns="http://www.w3.org/2000/svg">
<path d="M11.5 18.9734C12.0119 18.6881 14.5083 17.2466 16.9505 15.0763C19.6397 12.6865 21.9995 9.64542 22 6.46097L11.5 18.9734ZM11.5 18.9734C10.9881 18.6881 8.49175 17.2466 6.0495 15.0763C3.36014 12.6864 1.00028 9.64508 1 6.46043C1.00175 5.00811 1.57122 3.61867 2.57894 2.5961C3.58616 1.57403 4.94862 1.00177 6.36665 1C8.18862 1.00017 9.73861 1.78987 10.6961 3.08394L11.5 4.17034L12.3039 3.08394C13.2614 1.78987 14.8114 1.00017 16.6334 1C18.0514 1.00177 19.4138 1.57403 20.4211 2.5961L21.1157 1.9115L20.4211 2.5961C21.4289 3.61877 21.9984 5.00841 22 6.46089L11.5 18.9734Z" stroke="black" stroke-width="2"/>
</svg>

<svg xmlns="http://www.w3.org/2000/svg" width="23" height="20" fill="none"><path stroke="#000" stroke-width="2" d="M11.5 18.973a33.3 33.3 0 0 0 5.45-3.897c2.69-2.39 5.05-5.43 5.05-8.615zm0 0a33.3 33.3 0 0 1-5.45-3.897C3.36 12.686 1 9.646 1 6.46a5.52 5.52 0 0 1 1.579-3.864A5.33 5.33 0 0 1 6.367 1c1.822 0 3.372.79 4.33 2.084L11.5 4.17l.804-1.086C13.26 1.79 14.81 1 16.634 1a5.33 5.33 0 0 1 3.787 1.596l.695-.685-.695.685A5.52 5.52 0 0 1 22 6.461z"/></svg>
